X: 1
T: Gan Ainm
M: 4/4
L: 1/8
R: reel
K: Gmin
dggf d2cB | c2cB cdd2 | dggf d2B/c/d | c2Bc dFF2 |
dggf d2cB | c2cB cdd2 | bagf d2cB | cBAF F4 |
|: GFGd FGDE | cBc/d/e dcB2 | cBc/d/e dcBG | GFGD F4 |
GFGd FGDE | cBc/d/e dcBG | FGdF D/E/DdD | D/E/Dde dcB2 :|
|: gfdB c2Bc |\
M:3/4
~G3A Bd |\
M:4/4
fgBd gbBd | g2fd fBc/d/f |gfdB c2Bc |
M:3/4
~G3A Bd | A3B c/d/f | b2 af df | c'a ba gf:|
